X:1
T:Chimney Rock, CMD
T:Chimney Rock, CMD
T:Joseph Barnby, 1891
T:Public Domain Courtesy of the Cyber Hymnal™
C:Joseph Barnby, 1891
Z:Public Domain
Z:Courtesy of the Cyber Hymnal™
%%score ( 1 2 ) ( 3 4 )
L:1/8
Q:1/4=110
M:4/4
K:G
V:1 treble 
V:2 treble 
V:3 bass 
V:4 bass 
V:1
 [B,B]2 | [B,D]2 [CE]2 [DF]2 [B,G]2 | [CA]3 [CB] [CA]2 [Ec]2 | E2 [DF]2 [EG]2 [CA]2 | D6 [DB]2 | %5
 B3 z c [FB]2 [EB]2 | B3 z c [GB]2 [G^d]2 | [Fd]2 [DA]2 [^CG]2 [CE]2 | D6 D2 | %9
 [DA]3 [DA] [DG]2 [DA]2 | [DB]3 [DG] [DG]2 [FA]2 | [GB]2 [GB]2 [Gc]2 [Gd]2 | [Ge]6 [Ge]2 | %13
 e3 z A [FA]2 [Fd]2 | d3 z G [EG]2 [^Fc]2 | [GB]2 (AE) [DG]2 [DF]2 | [DG]6 |] %17
V:2
 x2 | x8 | x8 | E2 x6 | (C2 A,2 B,2) x2 | ^D2 E2 x5 | ^D2 F2 x5 | x8 | D6 D2 | x8 | x8 | x8 | x8 | %13
 G2 G2 x5 | G2 =F2 x5 | x2 E2 x4 | x6 |] %17
V:3
 [G,,D,]2 | [G,,G,]2 [G,,D,]2 [G,,B,]2 [G,,G,]2 | E,2 z [G,,A,]2 [G,,E,]2 x | %3
 [D,G,]2 [D,F,]2 [D,E,]2 [D,F,]2 | G,6 [G,B,]2 | [F,A,]2 [E,G,]2 [^D,F,]2 [E,G,]2 x | %6
 [F,A,]2 [^D,A,]2 [E,G,]2 [E,B,]2 x | [A,,A,]2 [A,,F,]2 [A,,E,]2 [A,,G,]2 | [D,F,]6 D,2 | %9
 [F,C]3 [F,C] [E,C]2 [F,C]2 | [G,B,]3 [B,D] [B,D]2 [A,C]2 | [G,B,]2 [=F,D]2 [E,C]2 [D,B,]2 | %12
 [C,C]6 [C,_B,]2 | [^C,A,]2 [A,,^C]2 [D,D]2 [D,=C]2 x | [G,,B,]2 [B,,D]2 [C,C]2 [A,,C]2 x | %15
 [B,,D]2 [C,C]2 [D,B,]2 [D,C]2 | [G,,B,]6 |] %17
V:4
 x2 | x8 | G,,3 E,2 G,, x2 | x8 | G,6 x2 | x9 | x9 | x8 | x6 D,2 | x8 | x8 | x8 | x8 | x9 | x9 | %15
 x8 | x6 |] %17

